X: 2157
Q: "Strathspey."
M: C
L: 1/16
K: D
(udB) |\
vBE3G3uE vBE3E3uc | vd3ue gfed B4 (A3B) |\
vd3ve(fa3)  (ef3)ud3uB |
vAF3D3uF A3Bd3e |\
f3de3B d3AB3F | EEE2 F3A B6 |]|\
(ufg) |\
a3df3d ad3 d2(fg) | a3df3d a6 (fa) |
b3eg3e be3 e2(dB) | vd3ue gfed B4 (AB3) |\
d3e(fa3)  (ef3)d3B | A3FD3F A3Bd3e |\
f3de3B d3AB3F | EEE2 F3A B6 |]


